src/main/resources/cards/fronts/diamonds_10.svg

<?xml version="1.0" encoding="UTF-8" standalone="no"?>
<!-- Created with Inkscape (http://www.inkscape.org/) -->

<svg
   xmlns:dc="http://purl.org/dc/elements/1.1/"
   xmlns:cc="http://creativecommons.org/ns#"
   xmlns:rdf="http://www.w3.org/1999/02/22-rdf-syntax-ns#"
   xmlns:svg="http://www.w3.org/2000/svg"
   xmlns="http://www.w3.org/2000/svg"
   xmlns:sodipodi="http://sodipodi.sourceforge.net/DTD/sodipodi-0.dtd"
   xmlns:inkscape="http://www.inkscape.org/namespaces/inkscape"
   width="234"
   height="333.00003"
   id="svg2"
   version="1.1"
   inkscape:version="0.92.4 (5da689c313, 2019-01-14)"
   sodipodi:docname="diamonds_10.svg"
   inkscape:export-filename="C:\Users\fowle\OneDrive\Projects\Playing-Cards\fronts\png-096-dpi\diamonds_10.png"
   inkscape:export-xdpi="96"
   inkscape:export-ydpi="96">
  <title
     id="title935">Ten of Diamonds Playing Card</title>
  <defs
     id="defs4" />
  <sodipodi:namedview
     id="base"
     pagecolor="#ffffff"
     bordercolor="#666666"
     borderopacity="1.0"
     inkscape:pageopacity="0.0"
     inkscape:pageshadow="2"
     inkscape:zoom="1.549743"
     inkscape:cx="4.3439772"
     inkscape:cy="171.40706"
     inkscape:document-units="px"
     inkscape:current-layer="layer1"
     showgrid="false"
     inkscape:showpageshadow="false"
     showguides="true"
     inkscape:guide-bbox="true"
     inkscape:snap-global="true"
     inkscape:window-width="1456"
     inkscape:window-height="976"
     inkscape:window-x="433"
     inkscape:window-y="23"
     inkscape:window-maximized="0"
     fit-margin-top="0"
     fit-margin-left="0"
     fit-margin-right="0"
     fit-margin-bottom="0"
     showborder="false">
    <inkscape:grid
       type="xygrid"
       id="grid3767"
       empspacing="5"
       visible="true"
       enabled="true"
       snapvisiblegridlinesonly="true"
       originx="0"
       originy="5.1666068e-06" />
  </sodipodi:namedview>
  <metadata
     id="metadata7">
    <rdf:RDF>
      <cc:Work
         rdf:about="">
        <dc:format>image/svg+xml</dc:format>
        <dc:type
           rdf:resource="http://purl.org/dc/dcmitype/StillImage" />
        <dc:title>Ten of Diamonds Playing Card</dc:title>
        <cc:license
           rdf:resource="http://creativecommons.org/publicdomain/zero/1.0/" />
        <dc:date>2020-05-05</dc:date>
        <dc:creator>
          <cc:Agent>
            <dc:title>Daniel S. Fowler</dc:title>
          </cc:Agent>
        </dc:creator>
        <dc:rights>
          <cc:Agent>
            <dc:title>Public Domain</dc:title>
          </cc:Agent>
        </dc:rights>
        <dc:publisher>
          <cc:Agent>
            <dc:title>https://tekeye.uk</dc:title>
          </cc:Agent>
        </dc:publisher>
        <dc:language>en-GB</dc:language>
        <dc:subject>
          <rdf:Bag>
            <rdf:li>Ten; diamonds; playing; card; white; red;</rdf:li>
          </rdf:Bag>
        </dc:subject>
        <dc:description>A ten of diamonds playing card.</dc:description>
      </cc:Work>
      <cc:License
         rdf:about="http://creativecommons.org/publicdomain/zero/1.0/">
        <cc:permits
           rdf:resource="http://creativecommons.org/ns#Reproduction" />
        <cc:permits
           rdf:resource="http://creativecommons.org/ns#Distribution" />
        <cc:permits
           rdf:resource="http://creativecommons.org/ns#DerivativeWorks" />
      </cc:License>
    </rdf:RDF>
  </metadata>
  <g
     inkscape:label="Layer 1"
     inkscape:groupmode="layer"
     id="layer1"
     style="fill:#F00"
     transform="translate(0,-719.36216)">
    <g
       id="g933">
      <rect
         rx="8.9191856"
         ry="8.9457436"
         y="719.74011"
         x="0.37795275"
         height="332.24411"
         width="233.24409"
         id="rect4266"
         style="fill:#ffffff;fill-opacity:1;stroke:#808080;stroke-width:0.75590551;stroke-linecap:butt;stroke-linejoin:miter;stroke-miterlimit:4;stroke-dasharray:none;stroke-opacity:1" />
      <g
         transform="matrix(0.07348588,0,0,0.07370838,-248.01731,933.60062)"
         id="g4233"
         style="fill:none;stroke:#000000;stroke-width:3.18132639;stroke-opacity:1" />
      <g
         clip-path="none"
         style="fill:none;stroke:#000000;stroke-width:3.18132639;stroke-opacity:1"
         id="g4211"
         transform="matrix(0.07348588,0,0,0.07370838,-248.01728,933.60062)" />
      <g
         transform="matrix(0.07348588,0,0,0.07370838,-248.01731,933.60062)"
         id="g4227"
         style="fill:none;stroke:#000000;stroke-width:3.18132639;stroke-opacity:1" />
      <path
         inkscape:export-ydpi="95.969437"
         inkscape:export-xdpi="95.969437"
         inkscape:export-filename="D:\DAN\Documents\Projects\Playing Cards\test.png"
         inkscape:connector-curvature="0"
         id="path4884-1"
         d="M 58.629672,814.07624 86.87338,785.73971 58.629672,757.40317 30.385965,785.73971 Z"
         style="fill:#ff0000;fill-opacity:1;stroke:none;stroke-width:1" />
      <path
         inkscape:export-ydpi="95.969437"
         inkscape:export-xdpi="95.969437"
         inkscape:export-filename="D:\DAN\Documents\Projects\Playing Cards\test.png"
         inkscape:connector-curvature="0"
         id="path4884-1-4"
         d="M 58.629676,1014.3212 86.87338,985.98462 58.629676,957.64809 30.385965,985.98462 Z"
         style="fill:#ff0000;fill-opacity:1;stroke:none;stroke-width:1" />
      <path
         inkscape:export-ydpi="95.969437"
         inkscape:export-xdpi="95.969437"
         inkscape:export-filename="D:\DAN\Documents\Projects\Playing Cards\test.png"
         inkscape:connector-curvature="0"
         id="path4884-1-4-1"
         d="M 58.629676,947.57285 86.87338,919.23632 58.629676,890.89979 30.385965,919.23632 Z"
         style="fill:#ff0000;fill-opacity:1;stroke:none;stroke-width:1" />
      <path
         inkscape:export-ydpi="95.969437"
         inkscape:export-xdpi="95.969437"
         inkscape:export-filename="D:\DAN\Documents\Projects\Playing Cards\test.png"
         inkscape:connector-curvature="0"
         id="path4884-1-7"
         d="M 58.629672,880.82455 86.87338,852.48801 58.629672,824.15148 30.385965,852.48801 Z"
         style="fill:#ff0000;fill-opacity:1;stroke:none;stroke-width:1" />
      <path
         inkscape:export-ydpi="95.969437"
         inkscape:export-xdpi="95.969437"
         inkscape:export-filename="D:\DAN\Documents\Projects\Playing Cards\test.png"
         inkscape:connector-curvature="0"
         id="path4884-1-40"
         d="M 175.37033,814.07623 203.61404,785.7397 175.37033,757.40316 147.12662,785.7397 Z"
         style="fill:#ff0000;fill-opacity:1;stroke:none;stroke-width:1" />
      <path
         inkscape:export-ydpi="95.969437"
         inkscape:export-xdpi="95.969437"
         inkscape:export-filename="D:\DAN\Documents\Projects\Playing Cards\test.png"
         inkscape:connector-curvature="0"
         id="path4884-1-4-9"
         d="m 175.37033,1014.3212 28.24371,-28.33659 -28.24371,-28.33654 -28.24371,28.33654 z"
         style="fill:#ff0000;fill-opacity:1;stroke:none;stroke-width:1" />
      <path
         inkscape:export-ydpi="95.969437"
         inkscape:export-xdpi="95.969437"
         inkscape:export-filename="D:\DAN\Documents\Projects\Playing Cards\test.png"
         inkscape:connector-curvature="0"
         id="path4884-1-4-1-4"
         d="M 175.37033,947.57284 203.61404,919.2363 175.37033,890.89978 147.12662,919.2363 Z"
         style="fill:#ff0000;fill-opacity:1;stroke:none;stroke-width:1" />
      <path
         inkscape:export-ydpi="95.969437"
         inkscape:export-xdpi="95.969437"
         inkscape:export-filename="D:\DAN\Documents\Projects\Playing Cards\test.png"
         inkscape:connector-curvature="0"
         id="path4884-1-7-8"
         d="M 175.37033,880.82454 203.61404,852.488 175.37033,824.15146 147.12662,852.488 Z"
         style="fill:#ff0000;fill-opacity:1;stroke:none;stroke-width:1" />
      <path
         inkscape:export-ydpi="95.969437"
         inkscape:export-xdpi="95.969437"
         inkscape:export-filename="D:\DAN\Documents\Projects\Playing Cards\test.png"
         inkscape:connector-curvature="0"
         id="path4884-1-40-8"
         d="M 117,980.947 145.24371,952.61047 117,924.27393 88.756294,952.61047 Z"
         style="fill:#ff0000;fill-opacity:1;stroke:none;stroke-width:1" />
      <path
         inkscape:export-ydpi="95.969437"
         inkscape:export-xdpi="95.969437"
         inkscape:export-filename="D:\DAN\Documents\Projects\Playing Cards\test.png"
         inkscape:connector-curvature="0"
         id="path4884-1-40-8-2"
         d="M 117,847.4504 145.24371,819.11386 117,790.77732 88.756294,819.11386 Z"
         style="fill:#ff0000;fill-opacity:1;stroke:none;stroke-width:1" />
      <g
         id="text3216-7"
         style="font-style:normal;font-variant:normal;font-weight:bold;font-stretch:normal;font-size:3.77201176px;line-height:0%;font-family:'Levenim MT';-inkscape-font-specification:'Sans Bold';letter-spacing:0px;word-spacing:0px;fill:#ff0000;fill-opacity:1;stroke:none;stroke-width:1"
         transform="scale(0.72184748,1.3853342)"
         aria-label="1">
        <path
           id="path900"
           style="font-size:28.97036934px;line-height:1.25;stroke-width:1"
           d="m 23.835468,544.63039 q 0,0.35364 -0.127311,0.62241 -0.339497,0.11317 -0.735576,0.11317 H 12.533063 q -0.933616,0 -0.933616,-0.9902 0,-0.16975 0.02829,-0.53754 0.02829,-0.38193 0.02829,-0.57997 0,-0.93362 0.82045,-0.93362 h 3.522276 v -13.07061 h -4.300289 q -0.905324,0 -0.905324,-0.9902 0,-0.21219 0.04244,-0.67899 0.05658,-0.48096 0.05658,-0.72143 0,-0.48096 0.905324,-0.48096 0.254622,0 0.961907,0.0566 0.707284,0.0424 1.103364,0.0424 2.26331,0 2.744263,-1.57017 h 2.701827 v 17.41334 q 0.947761,0 2.036979,-0.0566 1.103363,-0.0707 1.315549,-0.0707 0.82045,0 1.018489,0.43852 0.155603,0.38193 0.155603,1.99454 z" />
      </g>
      <g
         id="text3990-14"
         style="font-style:normal;font-variant:normal;font-weight:bold;font-stretch:normal;font-size:3.77201176px;line-height:0%;font-family:'Levenim MT';-inkscape-font-specification:'Sans Bold';letter-spacing:0px;word-spacing:0px;fill:#ff0000;fill-opacity:1;stroke:none;stroke-width:1"
         transform="scale(0.69918846,1.4302296)"
         aria-label="0">
        <path
           id="path897"
           style="font-size:27.65928841px;line-height:1.25;stroke-width:1"
           d="m 38.072907,518.57679 q 0,9.66994 -6.685228,9.66994 -6.779767,0 -6.779767,-9.72396 0,-10.08862 6.914822,-10.08862 6.550173,0 6.550173,10.14264 z m -3.511433,-0.28362 q 0,-6.92833 -3.227817,-6.92833 -1.890772,0 -2.687597,2.74162 -0.499704,1.72871 -0.499704,4.30826 0,6.92833 3.187301,6.92833 1.904277,0 2.714608,-2.72811 0.513209,-1.75572 0.513209,-4.32177 z" />
      </g>
      <path
         inkscape:connector-curvature="0"
         id="path4884-1-4-5-3"
         d="m 17.205569,780.7021 9.414569,-9.44551 -9.414569,-9.44552 -9.4145688,9.44552 z"
         style="fill:#ff0000;fill-opacity:1;stroke:none;stroke-width:1" />
      <g
         id="text3216-7-2"
         style="font-style:normal;font-variant:normal;font-weight:bold;font-stretch:normal;font-size:3.77201176px;line-height:0%;font-family:'Levenim MT';-inkscape-font-specification:'Sans Bold';letter-spacing:0px;word-spacing:0px;fill:#ff0000;fill-opacity:1;stroke:none;stroke-width:1"
         transform="scale(-0.72184748,-1.3853342)"
         aria-label="1">
        <path
           id="path906"
           style="font-size:28.97036934px;line-height:1.25;stroke-width:1"
           d="m -300.33276,-734.2844 q 0,0.35364 -0.12731,0.62241 -0.3395,0.11316 -0.73558,0.11316 h -10.43951 q -0.93362,0 -0.93362,-0.9902 0,-0.16974 0.0283,-0.53753 0.0283,-0.38194 0.0283,-0.57998 0,-0.93361 0.82045,-0.93361 h 3.52228 v -13.07062 h -4.30029 q -0.90532,0 -0.90532,-0.9902 0,-0.21218 0.0424,-0.67899 0.0566,-0.48095 0.0566,-0.72143 0,-0.48095 0.90532,-0.48095 0.25462,0 0.96191,0.0566 0.70728,0.0424 1.10336,0.0424 2.26331,0 2.74426,-1.57017 h 2.70183 v 17.41334 q 0.94776,0 2.03698,-0.0566 1.10336,-0.0707 1.31555,-0.0707 0.82045,0 1.01849,0.43851 0.1556,0.38194 0.1556,1.99455 z" />
      </g>
      <g
         id="text3990-14-6"
         style="font-style:normal;font-variant:normal;font-weight:bold;font-stretch:normal;font-size:3.77201176px;line-height:0%;font-family:'Levenim MT';-inkscape-font-specification:'Sans Bold';letter-spacing:0px;word-spacing:0px;fill:#ff0000;fill-opacity:1;stroke:none;stroke-width:1"
         transform="scale(-0.69918846,-1.4302296)"
         aria-label="0">
        <path
           id="path903"
           style="font-size:27.65928841px;line-height:1.25;stroke-width:1"
           d="m -296.60082,-720.19244 q 0,9.66995 -6.68523,9.66995 -6.77977,0 -6.77977,-9.72397 0,-10.08862 6.91482,-10.08862 6.55018,0 6.55018,10.14264 z m -3.51144,-0.28361 q 0,-6.92833 -3.22781,-6.92833 -1.89078,0 -2.6876,2.74162 -0.4997,1.7287 -0.4997,4.30826 0,6.92832 3.1873,6.92832 1.90427,0 2.7146,-2.72811 0.51321,-1.75572 0.51321,-4.32176 z" />
      </g>
      <path
         inkscape:connector-curvature="0"
         id="path4884-1-4-5-3-5"
         d="m 216.79443,991.02224 9.41457,9.44556 -9.41457,9.4455 -9.41457,-9.4455 z"
         style="fill:#ff0000;fill-opacity:1;stroke:none;stroke-width:1" />
    </g>
  </g>
</svg>

<svg width="234" height="333.00003" xmlns="http://www.w3.org/2000/svg">
    <g id="layer1" transform="matrix(1 0 0 1 0 -719.3622)">
        <g id="g933">
            <path id="rect4266" fill="#ffffff" stroke="#808080" stroke-width="0.7559055" d="M 9.297138 719.7401 L 224.70288 719.7401 C 229.6288 719.7401 233.62206 723.74524 233.62206 728.68585 L 233.62206 1043.0385 C 233.62207 1045.411 232.68237 1047.6864 231.0097 1049.3641 C 229.33702 1051.0417 227.06839 1051.9843 224.70288 1051.9843 L 9.297138 1051.9843 C 6.9316134 1051.9843 4.662975 1051.0417 2.9903018 1049.3641 C 1.3176281 1047.6864 0.3779376 1045.411 0.37795275 1043.0385 L 0.37795275 728.68585 C 0.37795484 723.74524 4.3712096 719.7401 9.297138 719.7401 Z"/>
            <g id="g4233" transform="matrix(0.07348588 0 0 0.07370838 -248.0173 933.60065)"/>
            <g id="g4211" transform="matrix(0.07348588 0 0 0.07370838 -248.01726 933.60065)"/>
            <g id="g4227" transform="matrix(0.07348588 0 0 0.07370838 -248.0173 933.60065)"/>
            <path id="path4884-1" fill="#ff0000" stroke="none" d="M 58.629673 814.07623 L 86.87338 785.7397 L 58.629673 757.40326 L 30.385965 785.7397 Z"/>
            <path id="path4884-1-4" fill="#ff0000" stroke="none" d="M 58.629677 1014.3212 L 86.87338 985.9846 L 58.629677 957.6481 L 30.385965 985.9846 Z"/>
            <path id="path4884-1-4-1" fill="#ff0000" stroke="none" d="M 58.629677 947.5729 L 86.87338 919.2364 L 58.629677 890.8997 L 30.385965 919.2364 Z"/>
            <path id="path4884-1-7" fill="#ff0000" stroke="none" d="M 58.629673 880.82446 L 86.87338 852.48804 L 58.629673 824.1515 L 30.385965 852.48804 Z"/>
            <path id="path4884-1-40" fill="#ff0000" stroke="none" d="M 175.37032 814.07623 L 203.61404 785.7397 L 175.37032 757.40314 L 147.12662 785.7397 Z"/>
            <path id="path4884-1-4-9" fill="#ff0000" stroke="none" d="M 175.37032 1014.3212 L 203.61404 985.9846 L 175.37032 957.6481 L 147.12662 985.9846 Z"/>
            <path id="path4884-1-4-1-4" fill="#ff0000" stroke="none" d="M 175.37032 947.5728 L 203.61404 919.2364 L 175.37032 890.8997 L 147.12662 919.2364 Z"/>
            <path id="path4884-1-7-8" fill="#ff0000" stroke="none" d="M 175.37032 880.82446 L 203.61404 852.488 L 175.37032 824.1515 L 147.12662 852.488 Z"/>
            <path id="path4884-1-40-8" fill="#ff0000" stroke="none" d="M 117 980.947 L 145.24371 952.6105 L 117 924.2739 L 88.756294 952.6105 Z"/>
            <path id="path4884-1-40-8-2" fill="#ff0000" stroke="none" d="M 117 847.4504 L 145.24371 819.11383 L 117 790.77734 L 88.756294 819.11383 Z"/>
            <g id="text3216-7" transform="matrix(0.7218474 0 0 1.3853343 0 0)">
                <path id="path900" fill="#ff0000" stroke="none" d="M 23.835468 544.6304 Q 23.835468 544.984 23.708157 545.2528 Q 23.36866 545.36597 22.972582 545.36597 L 12.533062 545.36597 Q 11.599447 545.36597 11.599447 544.3758 Q 11.599447 544.206 11.627738 543.83826 Q 11.656027 543.4563 11.656027 543.25824 Q 11.656027 542.32465 12.476476 542.32465 L 15.998752 542.32465 L 15.998752 529.254 L 11.698464 529.254 Q 10.79314 529.254 10.79314 528.26385 Q 10.79314 528.05164 10.83558 527.58484 Q 10.89216 527.1039 10.89216 526.8634 Q 10.89216 526.38245 11.797484 526.38245 Q 12.052106 526.38245 12.759391 526.439 Q 13.466675 526.48145 13.862755 526.48145 Q 16.126064 526.48145 16.607018 524.91125 L 19.308846 524.91125 L 19.308846 542.32465 Q 20.256605 542.32465 21.345823 542.268 Q 22.449184 542.1973 22.661373 542.1973 Q 23.481823 542.1973 23.679861 542.63586 Q 23.835464 543.01776 23.835464 544.6304 Z"/>
            </g>
            <g id="text3990-14" transform="matrix(0.6991885 0 0 1.4302295 0 0)">
                <path id="path897" fill="#ff0000" stroke="none" d="M 38.072906 518.5768 Q 38.072906 528.2467 31.387678 528.2467 Q 24.607912 528.2467 24.607912 518.52277 Q 24.607912 508.43414 31.522734 508.43414 Q 38.072906 508.43414 38.072906 518.5768 Z M 34.561474 518.29315 Q 34.561474 511.36484 31.333654 511.36484 Q 29.442884 511.36484 28.646063 514.10645 Q 28.146358 515.83514 28.146358 518.41473 Q 28.146358 525.3431 31.333654 525.3431 Q 33.237934 525.3431 34.048264 522.6149 Q 34.561474 520.8592 34.561474 518.29315 Z"/>
            </g>
            <path id="path4884-1-4-5-3" fill="#ff0000" stroke="none" d="M 17.205568 780.7021 L 26.620136 771.2566 L 17.205568 761.8111 L 7.7910004 771.2566 Z"/>
            <g id="text3216-7-2" transform="matrix(-0.7218474 0 0 -1.3853343 0 0)">
                <path id="path906" fill="#ff0000" stroke="none" d="M -300.33276 -734.2844 Q -300.33276 -733.9308 -300.46008 -733.662 Q -300.79956 -733.54877 -301.19565 -733.54877 L -311.63516 -733.54877 Q -312.5688 -733.54877 -312.5688 -734.53906 Q -312.5688 -734.7088 -312.54047 -735.07654 Q -312.51218 -735.4585 -312.51218 -735.6566 Q -312.51218 -736.59015 -311.69174 -736.59015 L -308.16946 -736.59015 L -308.16946 -749.6607 L -312.46973 -749.6607 Q -313.37506 -749.6607 -313.37506 -750.6509 Q -313.37506 -750.86316 -313.33267 -751.32996 Q -313.27606 -751.8109 -313.27606 -752.0514 Q -313.27606 -752.53235 -312.37073 -752.53235 Q -312.11612 -752.53235 -311.40884 -752.47577 Q -310.70154 -752.4333 -310.30548 -752.4333 Q -308.04214 -752.4333 -307.56122 -754.00354 L -304.85938 -754.00354 L -304.85938 -736.59015 Q -303.91162 -736.59015 -302.8224 -736.6467 Q -301.71906 -736.71747 -301.50684 -736.71747 Q -300.6864 -736.71747 -300.48837 -736.27893 Q -300.33276 -735.89703 -300.33276 -734.2844 Z"/>
            </g>
            <g id="text3990-14-6" transform="matrix(-0.6991885 0 0 -1.4302295 0 0)">
                <path id="path903" fill="#ff0000" stroke="none" d="M -296.60083 -720.19244 Q -296.60083 -710.52246 -303.28604 -710.52246 Q -310.06583 -710.52246 -310.06583 -720.24646 Q -310.06583 -730.3351 -303.151 -730.3351 Q -296.60083 -730.3351 -296.60083 -720.19244 Z M -300.11227 -720.4761 Q -300.11227 -727.40436 -303.34006 -727.40436 Q -305.23083 -727.40436 -306.02768 -724.6628 Q -306.52737 -722.9341 -306.52737 -720.3545 Q -306.52737 -713.4262 -303.34006 -713.4262 Q -301.4358 -713.4262 -300.62546 -716.1543 Q -300.11227 -717.91003 -300.11227 -720.4761 Z"/>
            </g>
            <path id="path4884-1-4-5-3-5" fill="#ff0000" stroke="none" d="M 216.79443 991.0222 L 226.209 1000.4677 L 216.79443 1009.9134 L 207.37987 1000.4677 Z"/>
        </g>
    </g>
</svg>
